X:1
T:Title
%%score { ( 1 2 ) | ( 3 4 5 ) }
L:1/8
Q:1/4=100
M:4/4
K:F
V:1 treble nm="Grand Piano"
V:2 treble 
V:3 bass 
V:4 bass 
V:5 bass 
V:1
 A2 c2 A2 F2 | G2 A2 B4 | A2 G2 F2 E2 | DDDD DDDD | B2 d2 B2 A2 | G2 D2 G2 F2 | E2 G2 [FA]2 [FG]2 | %7
w: Henry~W.~Miller * * *|||||||
 c-[Fc-][Gc-][Ac-] [Bc]4 | c2 A2 [EA]2 [EG]2 | F6 z2 | A2 F2 E2 F2 | D6 z2 | C2 F2 A2 c2 | %13
w: ||||||
[M:5/4] d2 [Ff]2 c3 A3 |[M:4/4] [CFc]2 [DFB]2 .[CFA]2 [B,EG]2 | [A,F]6 z2 |] %16
w: |||
V:2
 z F z A z F z C | z D z F z GGG | z E z E z E z ^C | x8 | z G z B z GG[D^F] | z D z B, z F z D | %6
 x8 | .E2 z2 z4 | x8 | z2 D2 C2 z2 | x8 | z2 B,2 B,2 z2 | x8 |[M:5/4] x10 |[M:4/4] x8 | x8 |] %16
V:3
 z C z [CF] z C A,,2 | B,,2 z D z [B,D][B,D][B,D] | z ^C z C z2 G,2 | z A,A,A, A,A,A,A, | %4
 z[K:treble] D z G[K:bass] z D z C | z B, z2 z [G,D] z G, | [C,G,]2 [E,C]2 [D,B,]2 [G,,G,]2 | %7
 z2 z C- C4 | [F,A,F]2 [F,CF]2 [C,C]2 [C,B,]2 | [F,A,]2 [F,B,]2 [F,A,]2 z2 | %10
 [F,CF]2 [F,A,C]2 [G,B,C]2 [F,A,C]2 | [B,,B,]2 [B,,F,]2 [B,,F,]2 z2 | %12
 [F,A,]2 [F,A,C]2[K:treble] [F,CF]2 [F,A,F]2 |[M:5/4] [B,F]2[K:bass] [D,B,]2 [F,F]3- [F,CF]3 | %14
[M:4/4] A,,2 B,,2 .C,2 C,2 | F,6 z2 |] %16
V:4
 F,,2 F,2 F,,2 z2 | z2 A,,2 G,,4 | A, A,2 A,- A,[A,^C] z A, | [D,F,]6 z2 | %4
 G,,2[K:treble] G,2[K:bass] G,,2 A,,2 | B,,4 =B,,4 | x8 | G,A, .B,2 E4 | x8 | x8 | x8 | x8 | %12
 x4[K:treble] x4 |[M:5/4] z4[K:bass] A,4 z2 |[M:4/4] x8 | x8 |] %16
V:5
 x8 | x8 | A,,8 | x8 | x[K:treble] x3[K:bass] x4 | x8 | x8 | C,8 | x8 | x8 | x8 | x8 | %12
 x4[K:treble] x4 |[M:5/4] x2[K:bass] x8 |[M:4/4] x8 | x8 |] %16

